X:548
T:Offa's Dyke
N:For the dance "Oswestry Square" by Gwnn Williams
S:Colin Hume's website,  colinhume.com  - chords can also be printed below the stave.
Q:3/8=120
M:6/8
L:1/8
K:D
P:A
A | "D"d2d "A7"A2G | "D"FA2- A2A | "D"d2d "Bm"F2G | "A7"A3- A2A |\
"D"d2d "G"Bcd | "A7"e2c "D"A2A | "G"B2d "A7"e2c | "D"d3- d2 :|
P:B
|: c/d/ | "A"e2e c2d | "/"e3- e2d/e/ | "Bm"f2f d2e | "/"f3- f2e |\
"G"d>cB "D"A2A | "G"B>AG "D"F2A | "G"B>cd "A7"e2c | "D"d3- d2 :|
P:C
|:d | "Bm"d2c Bde | "/"f>ed/c/ B2A | "D"d2f "A"e>dc | "E7"B3 "A"A2A |\
"D"d>cB A2A | "Em"B>AG "D"F2A | "G"B>cd "A7"e2c | "D"d3- d2 :|

